X:2065
T:The prodigal
T:Stroiltagh 
C:Traditional
O:Isle of Man
N:Version of Carval yn Nollick 
Z:Clague collection
B:Kiaull Vannin #65 
M:4/4 
L:1/4
Q:60 
K:G 
G2 D F|G2 A2|B c d2|e2 d B|G2 B2|A4| 
d2 B A|G2 G2|A B c2|d>c B G|B A G F|G4|| 

